icons/art/art_telecom_m_black.svg

<?xml version="1.0" encoding="UTF-8"?>
<svg width="96px" height="96px" viewBox="0 0 96 96" version="1.1" xmlns="http://www.w3.org/2000/svg" xmlns:xlink="http://www.w3.org/1999/xlink">
    <!-- Generator: Sketch 48.2 (47327) - http://www.bohemiancoding.com/sketch -->
    <title>art_cell-tower_m_black</title>
    <desc>Created with Sketch.</desc>
    <defs></defs>
    <g id="set" stroke="none" stroke-width="1" fill="none" fill-rule="evenodd">
        <g id="art_cell-tower_m_black">
            <g id="Group-2">
                <g id="icon_category_telecom__xxl__white-copy-2">
                    <g id="ungroup">
                        <rect id="Rectangle-path" x="0" y="0" width="96" height="96"></rect>
                    </g>
                </g>
                <path d="M71.9918333,85.6381667 L52.1043333,38.3345833 C53.1829167,37.3509583 53.8709167,35.9480833 53.8709167,34.375 C53.8709167,31.4062083 51.4647083,29 48.4959167,29 C45.527125,29 43.1209167,31.4062083 43.1209167,34.375 C43.1209167,35.9480833 43.8089167,37.3509583 44.8875,38.3345833 L25,85.6381667 L27.617625,87.8419167 L48.4959167,74.4850417 L69.3742083,87.8437083 L71.9918333,85.6381667 L71.9918333,85.6381667 Z M48.4959167,39.75 C48.5998333,39.75 48.6965833,39.7249167 48.7987083,39.7195417 L58.8427917,63.6114167 L48.4959167,70.231625 L38.1490417,63.6114167 L48.193125,39.7195417 C48.29525,39.7249167 48.392,39.75 48.4959167,39.75 L48.4959167,39.75 Z M30.5344583,81.723375 L36.7407917,66.963625 L45.172375,72.3583333 L30.5344583,81.723375 L30.5344583,81.723375 Z M51.8194583,72.3583333 L60.2510417,66.963625 L66.457375,81.723375 L51.8194583,72.3583333 L51.8194583,72.3583333 Z" id="Shape" fill="#0F2338" opacity="0.3"></path>
                <path d="M77.536392,61.908343 L76.7966913,61.235407 C83.322382,54.0622772 86.9166667,44.7652587 86.9166667,35.0587917 C86.9166667,25.3562698 83.3262036,16.0644516 76.8055134,8.8909849 L77.5454866,8.21834844 C84.2335293,15.5759213 87.9166667,25.1075726 87.9166667,35.0587917 C87.9166667,45.0140839 84.2296118,54.551063 77.536392,61.908343 Z" id="Shape" fill="#0F2338" fill-rule="nonzero"></path>
                <path d="M67.3300615,51.6907256 L66.5780218,51.0316078 C70.4503184,46.6133981 72.5833333,40.939928 72.5833333,35.0587917 C72.5833333,29.1144704 70.2939223,23.1557165 66.2602593,18.731363 L66.9992407,18.057637 C71.2015122,22.6669301 73.5833333,28.866204 73.5833333,35.0587917 C73.5833333,41.182358 71.3622454,47.0900879 67.3300615,51.6907256 Z" id="Shape" fill="#0F2338" fill-rule="nonzero"></path>
                <path d="M29.0008252,18.0575648 L29.7396748,18.7314352 C25.662293,23.2019868 23.4166667,29.0012329 23.4166667,35.0587917 C23.4166667,40.9410539 25.5492432,46.6128979 29.4219782,51.0316078 L28.6699385,51.6907256 C24.6373225,47.0895948 22.4166667,41.1834934 22.4166667,35.0587917 C22.4166667,28.7520044 24.7553659,22.7124012 29.0008252,18.0575648 Z" id="Shape" fill="#0F2338" fill-rule="nonzero"></path>
                <path d="M18.4545134,8.21834844 L19.1944866,8.8909849 C12.6737964,16.0644516 9.08333333,25.3562698 9.08333333,35.0587917 C9.08333333,44.7652587 12.677618,54.0622772 19.2033087,61.235407 L18.463608,61.908343 C11.7703882,54.551063 8.08333333,45.0140839 8.08333333,35.0587917 C8.08333333,25.1075726 11.7664707,15.5759213 18.4545134,8.21834844 Z" id="Shape" fill="#0F2338" fill-rule="nonzero"></path>
            </g>
        </g>
    </g>
</svg>

<svg width="96" height="96" viewBox="0 0 96 96" xmlns="http://www.w3.org/2000/svg"><g fill="none" fill-rule="evenodd"><path d="M0 0h96v96H0z"/><path d="M71.992 85.638L52.104 38.335a5.343 5.343 0 0 0 1.767-3.96 5.375 5.375 0 1 0-10.75 0c0 1.573.688 2.976 1.767 3.96L25 85.638l2.618 2.204 20.878-13.357 20.878 13.359 2.618-2.206zM48.496 39.75c.104 0 .2-.025.303-.03l10.044 23.89-10.347 6.62-10.347-6.62 10.044-23.89c.102.005.199.03.303.03zM30.534 81.723l6.207-14.76 8.431 5.395-14.638 9.365zm21.285-9.365l8.432-5.394 6.206 14.76-14.638-9.366z" fill="#0F2338" opacity=".3"/><path d="M77.536 61.908l-.74-.673a38.818 38.818 0 0 0 10.12-26.176A38.82 38.82 0 0 0 76.807 8.89l.74-.673a39.82 39.82 0 0 1 10.37 26.84 39.818 39.818 0 0 1-10.38 26.85zM67.33 51.69l-.752-.658a24.225 24.225 0 0 0 6.005-15.973c0-5.945-2.29-11.903-6.323-16.328l.74-.673c4.202 4.609 6.583 10.808 6.583 17a25.225 25.225 0 0 1-6.253 16.633zM29 18.058l.74.673a24.176 24.176 0 0 0-6.323 16.328 24.222 24.222 0 0 0 6.005 15.973l-.752.659a25.222 25.222 0 0 1-6.253-16.632A25.176 25.176 0 0 1 29 18.058zm-10.545-9.84l.74.673A38.82 38.82 0 0 0 9.082 35.059a38.818 38.818 0 0 0 10.12 26.176l-.74.673a39.818 39.818 0 0 1-10.38-26.85 39.82 39.82 0 0 1 10.372-26.84z" fill="#0F2338" fill-rule="nonzero"/></g></svg>
